svgs/light/flute.svg

<svg xmlns="http://www.w3.org/2000/svg" viewBox="0 0 640 512"><!-- Font Awesome Pro 6.0.0-alpha2 by @fontawesome - https://fontawesome.com License - https://fontawesome.com/license (Commercial License) --><path d="M320 232C306.75 232 296 242.75 296 256S306.75 280 320 280S344 269.25 344 256S333.25 232 320 232ZM592 160H48C21.6 160 0 181.6 0 208V304C0 330.4 21.6 352 48 352H592C618.4 352 640 330.4 640 304V208C640 181.6 618.4 160 592 160ZM112 320H48C39.164 320 32 312.836 32 304V208C32 199.164 39.164 192 48 192H112V320ZM608 304C608 312.836 600.838 320 592 320H144V192H592C600.838 192 608 199.164 608 208V304ZM512 232C498.75 232 488 242.75 488 256S498.75 280 512 280S536 269.25 536 256S525.25 232 512 232ZM416 232C402.75 232 392 242.75 392 256S402.75 280 416 280S440 269.25 440 256S429.25 232 416 232Z"/></svg>

<svg xmlns="http://www.w3.org/2000/svg" viewBox="0 0 640 512"><!--! Font Awesome Pro 6.3.0 by @fontawesome - https://fontawesome.com License - https://fontawesome.com/license (Commercial License) Copyright 2023 Fonticons, Inc. --><path d="M320 232C306.8 232 296 242.8 296 256S306.8 280 320 280S344 269.3 344 256S333.3 232 320 232zM592 160h-544C21.6 160 0 181.6 0 208v96C0 330.4 21.6 352 48 352h544c26.4 0 48-21.6 48-48v-96C640 181.6 618.4 160 592 160zM112 320h-64C39.16 320 32 312.8 32 304v-96C32 199.2 39.16 192 48 192h64V320zM608 304c0 8.836-7.162 16-16 16h-448V192h448C600.8 192 608 199.2 608 208V304zM512 232c-13.25 0-24 10.75-24 24S498.8 280 512 280S536 269.3 536 256S525.3 232 512 232zM416 232c-13.25 0-24 10.75-24 24S402.8 280 416 280S440 269.3 440 256S429.3 232 416 232z"/></svg>
